src/helpers/heroicons/solid/shopping-bag.svg

<svg width="24" height="24" viewBox="0 0 24 24" fill="none" xmlns="http://www.w3.org/2000/svg">
<path fill-rule="evenodd" clip-rule="evenodd" d="M7.5 6V6.75H5.51287C4.55332 6.75 3.74862 7.47444 3.64817 8.42872L2.38502 20.4287C2.26848 21.5358 3.13652 22.5 4.24971 22.5H19.7504C20.8636 22.5 21.7317 21.5358 21.6151 20.4287L20.352 8.42872C20.2515 7.47444 19.4468 6.75 18.4873 6.75H16.5V6C16.5 3.51472 14.4853 1.5 12 1.5C9.51472 1.5 7.5 3.51472 7.5 6ZM12 3C10.3431 3 9 4.34315 9 6V6.75H15V6C15 4.34315 13.6569 3 12 3ZM9 11.25C9 12.9069 10.3431 14.25 12 14.25C13.6569 14.25 15 12.9069 15 11.25V10.5C15 10.0858 15.3358 9.75 15.75 9.75C16.1642 9.75 16.5 10.0858 16.5 10.5V11.25C16.5 13.7353 14.4853 15.75 12 15.75C9.51472 15.75 7.5 13.7353 7.5 11.25V10.5C7.5 10.0858 7.83579 9.75 8.25 9.75C8.66421 9.75 9 10.0858 9 10.5V11.25Z" />
</svg>

<svg xmlns="http://www.w3.org/2000/svg" viewBox="0 0 24 24" fill="currentColor" aria-hidden="true" data-slot="icon">
  <path fill-rule="evenodd" d="M7.5 6v.75H5.513c-.96 0-1.764.724-1.865 1.679l-1.263 12A1.875 1.875 0 0 0 4.25 22.5h15.5a1.875 1.875 0 0 0 1.865-2.071l-1.263-12a1.875 1.875 0 0 0-1.865-1.679H16.5V6a4.5 4.5 0 1 0-9 0ZM12 3a3 3 0 0 0-3 3v.75h6V6a3 3 0 0 0-3-3Zm-3 8.25a3 3 0 1 0 6 0v-.75a.75.75 0 0 1 1.5 0v.75a4.5 4.5 0 1 1-9 0v-.75a.75.75 0 0 1 1.5 0v.75Z" clip-rule="evenodd"/>
</svg>
